X: 13075
T: Finny Bridge
R: jig
M: 6/8
K: Dmajor
|:ABA Bcd|ABG FED|ABA B2c|d>ef/g/ fed|
ABA Bcd|AGF GFE|DFA dAF|GEF D3:|
AdA Bcd|eag f2e|fag fed|cea f2e|
AdA Bcd|efg a2b|afd BAF|GEF D3:|

